assets/images/members/trustzone/trustzone.svg

<svg xmlns="http://www.w3.org/2000/svg" viewBox="0 0 237 29"><style>.shp0{fill:#000}</style><g id="Logotype"><path id="E" d="M237.13.49c-.14 1.68-.28 3.3-.4 4.91-.03.32-.23.29-.44.29h-10.47a2.04 2.04 0 0 0-.92.08c-.3.09-.57.25-.8.46s-.41.47-.53.75c-.12.29-.18.6-.17.91-.13 1.18-.29 2.35-.43 3.52 0 .16-.03.31-.04.51h10.91c-.14 1.63-.28 3.18-.42 4.8h-10.96c-.17 1.67-.4 3.29-.5 4.91-.07 1.06.4 1.52 1.47 1.63.2 0 .4.02.62.02h11.14c-.15 1.76-.3 3.46-.44 5.17-.02.01-.04.01-.05.02-.02 0-.04 0-.06.01-.01 0-.03 0-.05.01h-.05c-4.5 0-9.01 0-13.52-.03-.19 0-.38-.02-.57-.04-.2-.02-.39-.05-.58-.09a9 9 0 0 1-.56-.14c-.19-.05-.37-.11-.55-.18-1.86-.68-2.47-2.25-2.46-4.07 0-1.39.17-2.77.3-4.16.33-3.28.67-6.56 1.02-9.85q.045-.63.12-1.26c.04-.42.09-.84.14-1.26.06-.43.12-.84.19-1.26q.09-.63.21-1.26c.09-.57.27-1.12.55-1.62.27-.51.63-.97 1.05-1.36.43-.38.92-.69 1.45-.91.54-.22 1.1-.35 1.68-.38.13-.02.27-.03.4-.05l.4-.03c.14-.01.27-.01.41-.02h12.35z" class="shp0"/><path id="N" d="M188.79.5c.19 0 .34-.02.5-.02h14.75c.47-.02.95 0 1.41.07.47.06.93.18 1.38.33s.88.34 1.3.58c.41.23.8.5 1.16.8.34.32.65.66.92 1.03.27.38.51.77.71 1.19s.35.85.47 1.3c.11.44.18.9.21 1.36q.06.72.06 1.44c.01.48 0 .96-.02 1.44s-.05.96-.1 1.44-.11.96-.18 1.43c-.32 3.35-.67 6.7-1 10.05-.19 1.83-.37 3.65-.56 5.53h-5.56c.12-1.22.24-2.4.36-3.58l.99-9.95c.15-1.58.32-3.16.42-4.74.01-.15.01-.31 0-.47 0-.15-.01-.31-.03-.47-.02-.15-.04-.31-.07-.46a6 6 0 0 0-.1-.46 3.4 3.4 0 0 0-1.25-1.98c-.32-.24-.68-.42-1.06-.54-.38-.11-.78-.16-1.18-.14-2.74-.04-5.49 0-8.23 0a.1.1 0 0 1-.05.01c-.02.01-.03.01-.05.01-.01.01-.03.01-.04.02-.02 0-.03.01-.05.01-.78 7.56-1.55 15.14-2.33 22.76h-5.56c.94-9.34 1.87-18.67 2.78-27.99" class="shp0"/><path id="O" d="M172.55.02c.52.08 1.05.17 1.58.27 3.84.74 6.08 3 6.9 6.9.1.53.18 1.06.25 1.59.06.53.11 1.07.14 1.61.03.53.04 1.07.04 1.61-.01.54-.03 1.07-.07 1.61-.02.64-.06 1.28-.13 1.92s-.17 1.27-.3 1.9c-.12.63-.28 1.25-.45 1.87-.18.62-.39 1.23-.62 1.82a10.92 10.92 0 0 1-6.5 6.57c-1 .37-2.04.59-3.1.66a28 28 0 0 1-3.68.2c-.61 0-1.23-.03-1.84-.07-.61-.05-1.23-.12-1.83-.2-4.37-.69-6.68-2.88-7.44-7.34-.22-1.14-.35-2.29-.4-3.45q-.075-1.74.09-3.48a24.497 24.497 0 0 1 1.64-6.74c.37-1 .9-1.95 1.54-2.8.65-.86 1.42-1.62 2.29-2.25.86-.64 1.82-1.14 2.83-1.5s2.07-.57 3.14-.63c.03-.01.07-.01.1-.02s.07-.01.1-.02l.1-.03.1-.03zm-3.14 5.13v.06h-1.48c-.63.01-1.25.1-1.85.29-.6.18-1.18.46-1.7.81a6.4 6.4 0 0 0-1.39 1.26c-.4.49-.72 1.03-.96 1.61-.36.82-.65 1.66-.87 2.53-.22.86-.37 1.75-.45 2.64s-.08 1.78-.01 2.67.21 1.77.43 2.64c.08.5.26.97.51 1.41s.57.83.96 1.15c.39.33.83.58 1.3.75s.97.26 1.48.26c.26.02.51.04.77.05l.77.03c.26 0 .52.01.78 0 .25 0 .51 0 .77-.01.67 0 1.33-.1 1.97-.29.64-.2 1.25-.49 1.8-.87.55-.37 1.05-.83 1.46-1.36.42-.52.75-1.1 1-1.73.14-.31.26-.64.37-.97.12-.32.22-.66.3-.99.09-.34.16-.68.22-1.02s.11-.69.14-1.03c.07-.49.12-.99.15-1.49.03-.49.04-.99.03-1.49a18.4 18.4 0 0 0-.32-2.96c-.07-.49-.21-.97-.44-1.42-.23-.44-.53-.85-.89-1.19s-.78-.62-1.23-.83c-.46-.2-.94-.33-1.44-.37-.72-.1-1.46-.09-2.18-.14" class="shp0"/><path id="Z" d="M131.37 5.64c.14-1.73.28-3.42.43-5.15h15.68c.1 0 .2 0 .3.01.1 0 .2.01.29.02l.3.03c.1.01.2.03.3.05.34.04.67.14.98.31.3.16.57.37.8.63s.41.56.52.89c.12.32.18.67.17 1.01.07.66.05 1.32-.05 1.98-.11.65-.28 1.29-.54 1.9s-.58 1.19-.98 1.72-.85 1-1.37 1.42c-3.87 3.48-7.71 6.98-11.56 10.48l-.33.3c-.11.1-.21.21-.31.31q-.165.165-.3.33c-.1.11-.19.22-.29.34-.46.6-.26.98.47 1.06.06.01.12.01.18.01h.36c.06 0 .12 0 .18-.01h13.12c-.15 1.73-.3 3.42-.45 5.17h-16.63c-.08 0-.16 0-.25-.01-.08 0-.17 0-.25-.01s-.17-.01-.25-.02-.16-.02-.25-.04c-1.98-.35-2.75-1.55-2.78-3.61-.04-2.85 1.35-4.88 3.28-6.66 3.92-3.59 7.86-7.15 11.78-10.73.07-.06.14-.12.21-.19.06-.06.12-.13.18-.19l.18-.21c.06-.07.11-.15.16-.22.31-.47.16-.82-.4-.9l-.18-.03c-.05 0-.11-.01-.17-.01s-.12-.01-.18-.01-.12 0-.18.01h-12.17z" class="shp0"/><path id="T" d="M126.89.52c-.15 1.7-.31 3.38-.46 5.1h-7.65c-.79 7.63-1.59 15.22-2.36 22.84h-5.51c.8-7.59 1.57-15.17 2.35-22.81h-7.65c.16-1.73.31-3.42.47-5.13z" class="shp0"/><path id="S" d="M100.8.51c-.16 1.74-.3 3.41-.45 5.15H89.97c-2.03.09-2.4 1.55-2.21 3.34.04.1.08.2.13.29s.11.17.18.25.14.15.23.21c.08.07.17.12.26.17.95.58 1.94 1.08 2.93 1.6 1.7.88 3.4 1.74 5.09 2.62.11.06.21.12.31.18l.3.18c.1.07.2.13.3.2.09.07.19.13.28.2.41.26.77.58 1.09.94s.58.76.79 1.2c.2.43.35.89.43 1.37.07.47.09.95.03 1.43-.1 1.11-.16 2.23-.34 3.33-.07.6-.24 1.19-.5 1.73a5.6 5.6 0 0 1-2.44 2.58c-.53.29-1.11.49-1.7.59-.26.07-.52.12-.78.17s-.52.09-.79.12c-.26.04-.52.06-.79.08-.26.02-.53.03-.79.04-3.81.04-7.62 0-11.42 0h-.09c-.03 0-.06 0-.08-.01h-.09c-.03 0-.06-.01-.08-.01.15-1.7.31-3.39.46-5.13h11.7c.29.01.57-.04.84-.14.26-.11.5-.27.69-.48.2-.2.35-.45.45-.71.1-.27.14-.56.11-.84.07-.29.09-.58.04-.87a2.5 2.5 0 0 0-.28-.83c-.15-.25-.34-.48-.57-.66s-.49-.32-.77-.4c-2.13-1.09-4.27-2.14-6.39-3.25-.2-.11-.4-.21-.6-.32s-.39-.22-.59-.34l-.57-.36c-.19-.13-.38-.25-.57-.38a4.9 4.9 0 0 1-1.57-1.81 4.823 4.823 0 0 1-.48-2.35c.01-.34.02-.69.05-1.03.02-.34.04-.69.08-1.03q.045-.51.12-1.02.06-.51.15-1.02c.09-.56.27-1.11.52-1.62a5.497 5.497 0 0 1 2.36-2.41c.5-.27 1.04-.46 1.61-.56.23-.06.46-.12.7-.16.24-.05.48-.09.71-.13.24-.03.48-.06.72-.08s.49-.03.73-.04c3.52-.04 7.04 0 10.56 0 .13 0 .21.01.37.02" class="shp0"/><path id="U" d="M71.54.51h5.49c-.11 1.08-.21 2.14-.32 3.2-.37 3.62-.71 7.25-1.11 10.86-.28 2.51-.53 5.02-.97 7.5q-.12.765-.39 1.5c-.17.48-.4.95-.67 1.39s-.59.85-.95 1.22c-.35.38-.74.72-1.17 1.01-.37.24-.76.45-1.16.63s-.82.33-1.24.45c-.43.11-.86.2-1.3.25q-.66.09-1.32.06c-2.7.03-5.4.03-8.09-.02-.4.01-.81-.01-1.2-.08-.4-.06-.79-.16-1.17-.29s-.75-.3-1.1-.5a6 6 0 0 1-.99-.68c-.29-.26-.55-.55-.78-.86s-.43-.64-.6-.98c-.17-.35-.3-.71-.41-1.08-.1-.38-.17-.76-.2-1.14-.04-.46-.07-.91-.09-1.37a21 21 0 0 1 .07-2.74c.04-.45.09-.91.16-1.36.34-3.3.67-6.6 1.01-9.9.22-2.26.45-4.51.68-6.76 0-.02.01-.05.01-.07.01-.03.01-.05.02-.08.01-.02.01-.05.02-.07s.01-.05.02-.07h5.48c-.09.88-.16 1.75-.25 2.61-.41 3.99-.81 7.98-1.22 11.98-.16 1.59-.32 3.18-.44 4.78-.01.12-.01.23-.01.35a4 4 0 0 0 .05.7c.01.12.03.23.06.35.03.27.11.53.23.77.13.24.29.45.49.64.19.18.42.33.67.44q.375.15.78.18c.17.02.35.03.52.05l.52.03c.18.01.35.01.53.02h.52c1.35 0 2.7.03 4.05 0a3.3 3.3 0 0 0 2.36-.76c.32-.27.6-.6.8-.97s.33-.78.38-1.2c.07-.35.13-.69.19-1.04.06-.34.11-.69.16-1.04s.09-.7.13-1.05.08-.7.11-1.05c.35-3.21.68-6.43 1.01-9.65.21-2.05.42-4.08.63-6.16" class="shp0"/><path id="R" d="M28.98 28.47h-5.47c.93-9.32 1.86-18.61 2.8-27.98h.51c4.11 0 8.21-.02 12.32 0 .22.01.45.02.67.04.22.01.44.04.66.07s.44.07.65.12c.22.04.44.09.65.15a5.4 5.4 0 0 1 2.64 1.46c.37.36.68.76.93 1.21s.43.92.55 1.42c.21.73.35 1.49.43 2.24.08.76.09 1.53.03 2.29q-.09 1.14-.36 2.25c-.19.74-.44 1.46-.76 2.16-.24.55-.54 1.07-.89 1.56-.36.48-.77.92-1.22 1.32-.45.39-.95.73-1.48 1.02-.53.28-1.09.5-1.67.66-.12.04-.24.08-.43.15l5.24 9.83c-.2 0-.34.02-.48.02h-5.55c-.07.01-.14 0-.21-.01-.06-.02-.13-.05-.19-.08a.5.5 0 0 1-.15-.14.5.5 0 0 1-.11-.18c-1.66-3.25-3.35-6.5-5.02-9.75-.03-.05-.05-.11-.07-.17s-.03-.12-.04-.18c-.01-.07-.02-.13-.02-.19v-.19c.08-1.08.19-2.15.3-3.28h2.83c.12 0 .25 0 .37-.01.13 0 .26-.01.38-.02.13-.02.25-.03.38-.05.12-.01.25-.03.37-.06.33-.05.65-.15.95-.29q.465-.21.84-.54c.25-.22.47-.47.65-.75s.33-.58.42-.9a6.8 6.8 0 0 0 .41-1.99c.02-.34.02-.68 0-1.01-.03-.34-.08-.68-.15-1.01-.04-.26-.11-.5-.23-.73s-.28-.44-.46-.62c-.19-.17-.41-.32-.64-.42-.24-.11-.49-.17-.75-.19-.1-.02-.19-.03-.29-.04l-.3-.03c-.1-.01-.2-.02-.3-.02-.1-.01-.2-.01-.3-.01h-6.05c-.8 7.65-1.59 15.27-2.39 22.87" class="shp0"/><path d="M7.65 5.64H0L.47.51h20.81c-.15 1.7-.31 3.4-.47 5.13h-7.64l-2.34 22.81H5.3c.77-7.57 1.56-15.16 2.35-22.81" class="shp0"/></g></svg>

<svg xmlns="http://www.w3.org/2000/svg" viewBox="0 0 237 29">
	<style>
		tspan { white-space:pre }
		.shp0 { fill: #000000 } 
	</style>
	<g id="Logotype">
		<path id="E" class="shp0" d="M237.13 0.49C236.99 2.17 236.85 3.79 236.73 5.4C236.7 5.72 236.5 5.69 236.29 5.69L225.82 5.69C225.51 5.65 225.19 5.67 224.9 5.77C224.6 5.86 224.33 6.02 224.1 6.23C223.87 6.44 223.69 6.7 223.57 6.98C223.45 7.27 223.39 7.58 223.4 7.89C223.27 9.07 223.11 10.24 222.97 11.41C222.97 11.57 222.94 11.72 222.93 11.92L233.84 11.92C233.7 13.55 233.56 15.1 233.42 16.72L222.46 16.72C222.29 18.39 222.06 20.01 221.96 21.63C221.89 22.69 222.36 23.15 223.43 23.26C223.63 23.26 223.83 23.28 224.05 23.28L235.19 23.28C235.04 25.04 234.89 26.74 234.75 28.45C234.73 28.46 234.71 28.46 234.7 28.47C234.68 28.47 234.66 28.47 234.64 28.48C234.63 28.48 234.61 28.48 234.59 28.49C234.58 28.49 234.56 28.49 234.54 28.49C230.04 28.49 225.53 28.49 221.02 28.46C220.83 28.46 220.64 28.44 220.45 28.42C220.25 28.4 220.06 28.37 219.87 28.33C219.68 28.29 219.49 28.24 219.31 28.19C219.12 28.14 218.94 28.08 218.76 28.01C216.9 27.33 216.29 25.76 216.3 23.94C216.3 22.55 216.47 21.17 216.6 19.78C216.93 16.5 217.27 13.22 217.62 9.93C217.65 9.51 217.69 9.09 217.74 8.67C217.78 8.25 217.83 7.83 217.88 7.41C217.94 6.98 218 6.57 218.07 6.15C218.13 5.73 218.2 5.31 218.28 4.89C218.37 4.32 218.55 3.77 218.83 3.27C219.1 2.76 219.46 2.3 219.88 1.91C220.31 1.53 220.8 1.22 221.33 1C221.87 0.78 222.43 0.65 223.01 0.62C223.14 0.6 223.28 0.59 223.41 0.57C223.54 0.56 223.68 0.55 223.81 0.54C223.95 0.53 224.08 0.53 224.22 0.52C224.35 0.52 224.49 0.52 224.62 0.52L236.57 0.52L237.13 0.49Z" />
		<path id="N" class="shp0" d="M188.79 0.5C188.98 0.5 189.13 0.48 189.29 0.48L204.04 0.48C204.51 0.46 204.99 0.48 205.45 0.55C205.92 0.61 206.38 0.73 206.83 0.88C207.28 1.03 207.71 1.22 208.13 1.46C208.54 1.69 208.93 1.96 209.29 2.26C209.63 2.58 209.94 2.92 210.21 3.29C210.48 3.67 210.72 4.06 210.92 4.48C211.12 4.9 211.27 5.33 211.39 5.78C211.5 6.22 211.57 6.68 211.6 7.14C211.64 7.62 211.66 8.1 211.66 8.58C211.67 9.06 211.66 9.54 211.64 10.02C211.62 10.5 211.59 10.98 211.54 11.46C211.49 11.94 211.43 12.42 211.36 12.89C211.04 16.24 210.69 19.59 210.36 22.94C210.17 24.77 209.99 26.59 209.8 28.47L204.24 28.47C204.36 27.25 204.48 26.07 204.6 24.89C204.93 21.57 205.26 18.26 205.59 14.94C205.74 13.36 205.91 11.78 206.01 10.2C206.02 10.05 206.02 9.89 206.01 9.73C206.01 9.58 206 9.42 205.98 9.26C205.96 9.11 205.94 8.95 205.91 8.8C205.88 8.64 205.85 8.49 205.81 8.34C205.73 7.95 205.57 7.58 205.36 7.24C205.15 6.9 204.87 6.61 204.56 6.36C204.24 6.12 203.88 5.94 203.5 5.82C203.12 5.71 202.72 5.66 202.32 5.68C199.58 5.64 196.83 5.68 194.09 5.68C194.07 5.69 194.06 5.69 194.04 5.69C194.02 5.7 194.01 5.7 193.99 5.7C193.98 5.71 193.96 5.71 193.95 5.72C193.93 5.72 193.92 5.73 193.9 5.73C193.12 13.29 192.35 20.87 191.57 28.49L186.01 28.49C186.95 19.15 187.88 9.82 188.79 0.5Z" />
		<path id="O" class="shp0" d="M172.55 0.02C173.07 0.1 173.6 0.19 174.13 0.29C177.97 1.03 180.21 3.29 181.03 7.19C181.13 7.72 181.21 8.25 181.28 8.78C181.34 9.31 181.39 9.85 181.42 10.39C181.45 10.92 181.46 11.46 181.46 12C181.45 12.54 181.43 13.07 181.39 13.61C181.37 14.25 181.33 14.89 181.26 15.53C181.19 16.17 181.09 16.8 180.96 17.43C180.84 18.06 180.68 18.68 180.51 19.3C180.33 19.92 180.12 20.53 179.89 21.12C179.53 22.12 179.03 23.07 178.4 23.92C177.77 24.77 177.02 25.53 176.17 26.17C175.32 26.81 174.38 27.32 173.39 27.69C172.39 28.06 171.35 28.28 170.29 28.35C169.68 28.42 169.07 28.48 168.45 28.51C167.84 28.54 167.23 28.56 166.61 28.55C166 28.55 165.38 28.52 164.77 28.48C164.16 28.43 163.54 28.36 162.94 28.28C158.57 27.59 156.26 25.4 155.5 20.94C155.28 19.8 155.15 18.65 155.1 17.49C155.05 16.33 155.08 15.17 155.19 14.01C155.3 12.86 155.5 11.71 155.77 10.58C156.04 9.46 156.4 8.35 156.83 7.27C157.2 6.27 157.73 5.32 158.37 4.47C159.02 3.61 159.79 2.85 160.66 2.22C161.52 1.58 162.48 1.08 163.49 0.72C164.5 0.36 165.56 0.15 166.63 0.09C166.66 0.08 166.7 0.08 166.73 0.07C166.76 0.06 166.8 0.06 166.83 0.05C166.86 0.04 166.9 0.03 166.93 0.02C166.96 0.01 167 0 167.03 -0.01L172.55 0.02ZM169.41 5.15L169.41 5.21L167.93 5.21C167.3 5.22 166.68 5.31 166.08 5.5C165.48 5.68 164.9 5.96 164.38 6.31C163.86 6.66 163.39 7.08 162.99 7.57C162.59 8.06 162.27 8.6 162.03 9.18C161.67 10 161.38 10.84 161.16 11.71C160.94 12.57 160.79 13.46 160.71 14.35C160.63 15.24 160.63 16.13 160.7 17.02C160.77 17.91 160.91 18.79 161.13 19.66C161.21 20.16 161.39 20.63 161.64 21.07C161.89 21.51 162.21 21.9 162.6 22.22C162.99 22.55 163.43 22.8 163.9 22.97C164.37 23.14 164.87 23.23 165.38 23.23C165.64 23.25 165.89 23.27 166.15 23.28C166.41 23.29 166.67 23.3 166.92 23.31C167.18 23.31 167.44 23.32 167.7 23.31C167.95 23.31 168.21 23.31 168.47 23.3C169.14 23.3 169.8 23.2 170.44 23.01C171.08 22.81 171.69 22.52 172.24 22.14C172.79 21.77 173.29 21.31 173.7 20.78C174.12 20.26 174.45 19.68 174.7 19.05C174.84 18.74 174.96 18.41 175.07 18.08C175.19 17.76 175.29 17.42 175.37 17.09C175.46 16.75 175.53 16.41 175.59 16.07C175.65 15.73 175.7 15.38 175.73 15.04C175.8 14.55 175.85 14.05 175.88 13.55C175.91 13.06 175.92 12.56 175.91 12.06C175.9 11.57 175.86 11.07 175.81 10.58C175.76 10.08 175.68 9.59 175.59 9.1C175.52 8.61 175.38 8.13 175.15 7.68C174.92 7.24 174.62 6.83 174.26 6.49C173.9 6.15 173.48 5.87 173.03 5.66C172.57 5.46 172.09 5.33 171.59 5.29C170.87 5.19 170.13 5.2 169.41 5.15Z" />
		<path id="Z" class="shp0" d="M131.37 5.64C131.51 3.91 131.65 2.22 131.8 0.49L147.48 0.49C147.58 0.49 147.68 0.49 147.78 0.5C147.88 0.5 147.98 0.51 148.07 0.52C148.17 0.53 148.27 0.54 148.37 0.55C148.47 0.56 148.57 0.58 148.67 0.6C149.01 0.64 149.34 0.74 149.65 0.91C149.95 1.07 150.22 1.28 150.45 1.54C150.68 1.8 150.86 2.1 150.97 2.43C151.09 2.75 151.15 3.1 151.14 3.44C151.21 4.1 151.19 4.76 151.09 5.42C150.98 6.07 150.81 6.71 150.55 7.32C150.29 7.93 149.97 8.51 149.57 9.04C149.17 9.57 148.72 10.04 148.2 10.46C144.33 13.94 140.49 17.44 136.64 20.94C136.53 21.04 136.42 21.14 136.31 21.24C136.2 21.34 136.1 21.45 136 21.55C135.89 21.66 135.79 21.77 135.7 21.88C135.6 21.99 135.51 22.1 135.41 22.22C134.95 22.82 135.15 23.2 135.88 23.28C135.94 23.29 136 23.29 136.06 23.29C136.12 23.29 136.18 23.29 136.24 23.29C136.3 23.29 136.36 23.29 136.42 23.29C136.48 23.29 136.54 23.29 136.6 23.28L149.72 23.28C149.57 25.01 149.42 26.7 149.27 28.45L132.64 28.45C132.56 28.45 132.48 28.45 132.39 28.44C132.31 28.44 132.22 28.44 132.14 28.43C132.06 28.42 131.97 28.42 131.89 28.41C131.81 28.4 131.73 28.39 131.64 28.37C129.66 28.02 128.89 26.82 128.86 24.76C128.82 21.91 130.21 19.88 132.14 18.1C136.06 14.51 140 10.95 143.92 7.37C143.99 7.31 144.06 7.25 144.13 7.18C144.19 7.12 144.25 7.05 144.31 6.99C144.37 6.92 144.43 6.85 144.49 6.78C144.55 6.71 144.6 6.63 144.65 6.56C144.96 6.09 144.81 5.74 144.25 5.66C144.19 5.65 144.13 5.64 144.07 5.63C144.02 5.63 143.96 5.62 143.9 5.62C143.84 5.62 143.78 5.61 143.72 5.61C143.66 5.61 143.6 5.61 143.54 5.62L131.37 5.62L131.37 5.64Z" />
		<path id="T" class="shp0" d="M126.89 0.52C126.74 2.22 126.58 3.9 126.43 5.62L118.78 5.62C117.99 13.25 117.19 20.84 116.42 28.46L110.91 28.46C111.71 20.87 112.48 13.29 113.26 5.65L105.61 5.65C105.77 3.92 105.92 2.23 106.08 0.52L126.89 0.52Z" />
		<path id="S" class="shp0" d="M100.8 0.51C100.64 2.25 100.5 3.92 100.35 5.66L89.97 5.66C87.94 5.75 87.57 7.21 87.76 9C87.8 9.1 87.84 9.2 87.89 9.29C87.94 9.38 88 9.46 88.07 9.54C88.14 9.62 88.21 9.69 88.3 9.75C88.38 9.82 88.47 9.87 88.56 9.92C89.51 10.5 90.5 11 91.49 11.52C93.19 12.4 94.89 13.26 96.58 14.14C96.69 14.2 96.79 14.26 96.89 14.32C96.99 14.38 97.09 14.44 97.19 14.5C97.29 14.57 97.39 14.63 97.49 14.7C97.58 14.77 97.68 14.83 97.77 14.9C98.18 15.16 98.54 15.48 98.86 15.84C99.18 16.2 99.44 16.6 99.65 17.04C99.85 17.47 100 17.93 100.08 18.41C100.15 18.88 100.17 19.36 100.11 19.84C100.01 20.95 99.95 22.07 99.77 23.17C99.7 23.77 99.53 24.36 99.27 24.9C99.02 25.45 98.67 25.95 98.26 26.39C97.84 26.83 97.36 27.2 96.83 27.48C96.3 27.77 95.72 27.97 95.13 28.07C94.87 28.14 94.61 28.19 94.35 28.24C94.09 28.29 93.83 28.33 93.56 28.36C93.3 28.4 93.04 28.42 92.77 28.44C92.51 28.46 92.24 28.47 91.98 28.48C88.17 28.52 84.36 28.48 80.56 28.48C80.53 28.48 80.5 28.48 80.47 28.48C80.44 28.48 80.41 28.48 80.39 28.47C80.36 28.47 80.33 28.47 80.3 28.47C80.27 28.47 80.24 28.46 80.22 28.46C80.37 26.76 80.53 25.07 80.68 23.33L92.38 23.33C92.67 23.34 92.95 23.29 93.22 23.19C93.48 23.08 93.72 22.92 93.91 22.71C94.11 22.51 94.26 22.26 94.36 22C94.46 21.73 94.5 21.44 94.47 21.16C94.54 20.87 94.56 20.58 94.51 20.29C94.47 20 94.37 19.72 94.23 19.46C94.08 19.21 93.89 18.98 93.66 18.8C93.43 18.62 93.17 18.48 92.89 18.4C90.76 17.31 88.62 16.26 86.5 15.15C86.3 15.04 86.1 14.94 85.9 14.83C85.7 14.72 85.51 14.61 85.31 14.49C85.12 14.37 84.93 14.25 84.74 14.13C84.55 14 84.36 13.88 84.17 13.75C83.84 13.52 83.54 13.25 83.27 12.94C83.01 12.64 82.78 12.3 82.6 11.94C82.42 11.57 82.29 11.19 82.21 10.79C82.13 10.4 82.1 9.99 82.12 9.59C82.13 9.25 82.14 8.9 82.17 8.56C82.19 8.22 82.21 7.87 82.25 7.53C82.28 7.19 82.32 6.85 82.37 6.51C82.41 6.17 82.46 5.83 82.52 5.49C82.61 4.93 82.79 4.38 83.04 3.87C83.3 3.36 83.63 2.89 84.03 2.48C84.43 2.07 84.89 1.73 85.4 1.46C85.9 1.19 86.44 1 87.01 0.9C87.24 0.84 87.47 0.78 87.71 0.74C87.95 0.69 88.19 0.65 88.42 0.61C88.66 0.58 88.9 0.55 89.14 0.53C89.38 0.51 89.63 0.5 89.87 0.49C93.39 0.45 96.91 0.49 100.43 0.49C100.56 0.49 100.64 0.5 100.8 0.51Z" />
		<path id="U" class="shp0" d="M71.54 0.51L77.03 0.51C76.92 1.59 76.82 2.65 76.71 3.71C76.34 7.33 76 10.96 75.6 14.57C75.32 17.08 75.07 19.59 74.63 22.07C74.55 22.58 74.42 23.08 74.24 23.57C74.07 24.05 73.84 24.52 73.57 24.96C73.3 25.4 72.98 25.81 72.62 26.18C72.27 26.56 71.88 26.9 71.45 27.19C71.08 27.43 70.69 27.64 70.29 27.82C69.89 28 69.47 28.15 69.05 28.27C68.62 28.38 68.19 28.47 67.75 28.52C67.31 28.58 66.87 28.6 66.43 28.58C63.73 28.61 61.03 28.61 58.34 28.56C57.94 28.57 57.53 28.55 57.14 28.48C56.74 28.42 56.35 28.32 55.97 28.19C55.59 28.06 55.22 27.89 54.87 27.69C54.52 27.5 54.19 27.27 53.88 27.01C53.59 26.75 53.33 26.46 53.1 26.15C52.87 25.84 52.67 25.51 52.5 25.17C52.33 24.82 52.2 24.46 52.09 24.09C51.99 23.71 51.92 23.33 51.89 22.95C51.85 22.49 51.82 22.04 51.8 21.58C51.78 21.12 51.78 20.67 51.79 20.21C51.8 19.75 51.83 19.3 51.87 18.84C51.91 18.39 51.96 17.93 52.03 17.48C52.37 14.18 52.7 10.88 53.04 7.58C53.26 5.32 53.49 3.07 53.72 0.82C53.72 0.8 53.73 0.77 53.73 0.75C53.74 0.72 53.74 0.7 53.75 0.67C53.76 0.65 53.76 0.62 53.77 0.6C53.78 0.58 53.78 0.55 53.79 0.53L59.27 0.53C59.18 1.41 59.11 2.28 59.02 3.14C58.61 7.13 58.21 11.12 57.8 15.12C57.64 16.71 57.48 18.3 57.36 19.9C57.35 20.02 57.35 20.13 57.35 20.25C57.35 20.37 57.35 20.48 57.36 20.6C57.37 20.72 57.38 20.83 57.4 20.95C57.41 21.07 57.43 21.18 57.46 21.3C57.49 21.57 57.57 21.83 57.69 22.07C57.82 22.31 57.98 22.52 58.18 22.71C58.37 22.89 58.6 23.04 58.85 23.15C59.1 23.25 59.36 23.31 59.63 23.33C59.8 23.35 59.98 23.36 60.15 23.38C60.33 23.39 60.5 23.4 60.67 23.41C60.85 23.42 61.02 23.42 61.2 23.43C61.37 23.43 61.54 23.43 61.72 23.43C63.07 23.43 64.42 23.46 65.77 23.43C66.19 23.46 66.62 23.41 67.02 23.28C67.42 23.15 67.8 22.95 68.13 22.67C68.45 22.4 68.73 22.07 68.93 21.7C69.13 21.33 69.26 20.92 69.31 20.5C69.38 20.15 69.44 19.81 69.5 19.46C69.56 19.12 69.61 18.77 69.66 18.42C69.71 18.07 69.75 17.72 69.79 17.37C69.83 17.02 69.87 16.67 69.9 16.32C70.25 13.11 70.58 9.89 70.91 6.67C71.12 4.62 71.33 2.59 71.54 0.51Z" />
		<path id="R" class="shp0" d="M28.98 28.47L23.51 28.47C24.44 19.15 25.37 9.86 26.31 0.49L26.82 0.49C30.93 0.49 35.03 0.47 39.14 0.49C39.36 0.5 39.59 0.51 39.81 0.53C40.03 0.54 40.25 0.57 40.47 0.6C40.69 0.63 40.91 0.67 41.12 0.72C41.34 0.76 41.56 0.81 41.77 0.87C42.27 0.98 42.75 1.17 43.19 1.41C43.64 1.66 44.05 1.97 44.41 2.33C44.78 2.69 45.09 3.09 45.34 3.54C45.59 3.99 45.77 4.46 45.89 4.96C46.1 5.69 46.24 6.45 46.32 7.2C46.4 7.96 46.41 8.73 46.35 9.49C46.29 10.25 46.17 11 45.99 11.74C45.8 12.48 45.55 13.2 45.23 13.9C44.99 14.45 44.69 14.97 44.34 15.46C43.98 15.94 43.57 16.38 43.12 16.78C42.67 17.17 42.17 17.51 41.64 17.8C41.11 18.08 40.55 18.3 39.97 18.46C39.85 18.5 39.73 18.54 39.54 18.61L44.78 28.44C44.58 28.44 44.44 28.46 44.3 28.46L38.75 28.46C38.68 28.47 38.61 28.46 38.54 28.45C38.48 28.43 38.41 28.4 38.35 28.37C38.29 28.33 38.24 28.29 38.2 28.23C38.15 28.18 38.12 28.12 38.09 28.05C36.43 24.8 34.74 21.55 33.07 18.3C33.04 18.25 33.02 18.19 33 18.13C32.98 18.07 32.97 18.01 32.96 17.95C32.95 17.88 32.94 17.82 32.94 17.76C32.94 17.7 32.94 17.63 32.94 17.57C33.02 16.49 33.13 15.42 33.24 14.29L36.07 14.29C36.19 14.29 36.32 14.29 36.44 14.28C36.57 14.28 36.7 14.27 36.82 14.26C36.95 14.24 37.07 14.23 37.2 14.21C37.32 14.2 37.45 14.18 37.57 14.15C37.9 14.1 38.22 14 38.52 13.86C38.83 13.72 39.11 13.54 39.36 13.32C39.61 13.1 39.83 12.85 40.01 12.57C40.19 12.29 40.34 11.99 40.43 11.67C40.55 11.35 40.64 11.02 40.71 10.69C40.78 10.36 40.82 10.02 40.84 9.68C40.86 9.34 40.86 9 40.84 8.67C40.81 8.33 40.76 7.99 40.69 7.66C40.65 7.4 40.58 7.16 40.46 6.93C40.34 6.7 40.18 6.49 40 6.31C39.81 6.14 39.59 5.99 39.36 5.89C39.12 5.78 38.87 5.72 38.61 5.7C38.51 5.68 38.42 5.67 38.32 5.66C38.22 5.65 38.12 5.64 38.02 5.63C37.92 5.62 37.82 5.61 37.72 5.61C37.62 5.6 37.52 5.6 37.42 5.6L31.37 5.6C30.57 13.25 29.78 20.87 28.98 28.47Z" />
		<path id="T" class="shp0" d="M7.65 5.64L0 5.64L0.47 0.51L21.28 0.51C21.13 2.21 20.97 3.91 20.81 5.64L13.17 5.64L10.83 28.45L5.3 28.45C6.07 20.88 6.86 13.29 7.65 5.64Z" />
	</g>
</svg>
